X:53
T:Ril Aoife
S:Jacques Dumont
Z:robin.beech@mcgill.ca
R:hornpipe
M:4/4
L:1/8
K:A
A3c e2c2 | G3c e2c2 | F3d e2dc | BAGF EFGB |
A3c e2c2 | G3c e2c2 | F3d e2d2 | BAGB AEEE ::
aaga fddd | Adfa bagf | fe^df eccc | Ecef edcA |
Bddd dBBG | EGBc dBcd | eeef edcd | e2f2 efga |
aaga fddd | Adfa bagf | fe^df eccc | Ecef edcA |
Bddd dBBG | EGBc dcd2 | eeed dBGA | BAAA AEFE |]
